icons/lines/briefcase.svg

<svg xmlns="http://www.w3.org/2000/svg" width="24" height="24" viewBox="0 0 24 24" fill="none" stroke="currentColor" stroke-width="2" stroke-linecap="round" stroke-linejoin="round" >
  <path d="M7.99983 22H15.9998C20.0198 22 20.7398 20.39 20.9498 18.43L21.6998 10.43C21.9698 7.99 21.2698 6 16.9998 6H6.99983C2.72983 6 2.02983 7.99 2.29983 10.43L3.04983 18.43C3.25983 20.39 3.97983 22 7.99983 22Z" stroke-miterlimit="10"/>
  <path d="M8 6V5.2C8 3.43 8 2 11.2 2H12.8C16 2 16 3.43 16 5.2V6" stroke-miterlimit="10"/>
  <path d="M14 13V14C14 14.01 14 14.01 14 14.02C14 15.11 13.99 16 12 16C10.02 16 10 15.12 10 14.03V13C10 12 10 12 11 12H13C14 12 14 12 14 13Z" stroke-miterlimit="10"/>
  <path d="M21.65 11C19.34 12.68 16.7 13.68 14 14.02" stroke-miterlimit="10"/>
  <path d="M2.62012 11.27C4.87012 12.81 7.41012 13.74 10.0001 14.03" stroke-miterlimit="10"/>
  </svg>

<svg xmlns="http://www.w3.org/2000/svg" width="24" height="24" viewBox="0 0 24 24" fill="none" stroke="currentColor" stroke-width="2" stroke-linecap="round" stroke-linejoin="round">
  <path d="M14 14c0 1.11-.01 2-2 2-1.98 0-2-.88-2-1.97V13a2 2 0 0 1 1-1h2a2 2 0 0 1 1 1z" />
  <path d="M16 22c4.02 0 4.74-1.61 4.95-3.57l.75-8C21.97 7.99 21.27 6 17 6H7c-4.27 0-4.97 1.99-4.7 4.43l.75 8C3.26 20.39 3.98 22 8 22z" />
  <path d="M2.62 11.27A16.3 16.3 0 0 0 10 14.03" />
  <path d="M21.65 11A16.5 16.5 0 0 1 14 14.02" />
  <path d="M8 6v-.8C8 3.43 8 2 11.2 2h1.6C16 2 16 3.43 16 5.2V6" />
</svg>
